priv/static/svgs/icons_new/security-lock.svg

<svg width="32" height="32" viewBox="0 0 32 32" fill="none" xmlns="http://www.w3.org/2000/svg">
<path d="M6.5 15.3867H6H6.5ZM6.5 22.5H7H6.5ZM22.5 25.5V25V25.5ZM9.5 25.5V26V25.5ZM25.5 15.3868H25H25.5ZM25.5 22.5H26H25.5ZM22.5 12.3868V11.8868V12.3868ZM9.5 12.3867L9.5 12.8867L9.5 12.3867ZM15.5 20.1004C15.5 20.3766 15.7239 20.6004 16 20.6004C16.2761 20.6004 16.5 20.3766 16.5 20.1004H15.5ZM16.5 17.015C16.5 16.7388 16.2761 16.515 16 16.515C15.7239 16.515 15.5 16.7388 15.5 17.015H16.5ZM6 15.3867L6 22.5H7L7 15.3867H6ZM22.5 25H9.5V26H22.5V25ZM25 15.3868V22.5H26V15.3868H25ZM22.5 11.8868L9.50001 11.8867L9.5 12.8867L22.5 12.8868V11.8868ZM26 15.3868C26 13.4538 24.433 11.8868 22.5 11.8868V12.8868C23.8807 12.8868 25 14.006 25 15.3868H26ZM7 15.3867C7 14.006 8.11929 12.8867 9.5 12.8867L9.50001 11.8867C7.56701 11.8867 6 13.4537 6 15.3867H7ZM6 22.5C6 24.433 7.567 26 9.5 26V25C8.11929 25 7 23.8807 7 22.5H6ZM22.5 26C24.433 26 26 24.433 26 22.5H25C25 23.8807 23.8807 25 22.5 25V26ZM10.6538 12.6709C10.6538 9.51315 13.0725 7 16 7V6C12.47 6 9.65384 9.0125 9.65384 12.6709H10.6538ZM16 7C18.9275 7 21.3462 9.51315 21.3462 12.6709H22.3462C22.3462 9.0125 19.53 6 16 6V7ZM16.5 20.1004L16.5 17.015H15.5L15.5 20.1004H16.5Z" fill="black"/>
</svg>

<svg width="32" height="32" viewBox="0 0 32 32" fill="none" xmlns="http://www.w3.org/2000/svg">
  <symbol id="item" viewBox="0 0 32 32"  fill="none">
    <path d="M6.5 15.387H6h.5Zm0 7.113H7h-.5Zm16 3V25v.5Zm-13 0v.5-.5Zm16-10.113H25h.5Zm0 7.113h.5-.5Zm-3-10.113v-.5.5Zm-13 0v.5-.5Zm6 7.713a.5.5 0 1 0 1 0h-1Zm1-3.085a.5.5 0 1 0-1 0h1ZM6 15.387V22.5h1v-7.113H6ZM22.5 25h-13v1h13v-1Zm2.5-9.613V22.5h1v-7.113h-1Zm-2.5-3.5h-13v1h13v-1Zm3.5 3.5a3.5 3.5 0 0 0-3.5-3.5v1a2.5 2.5 0 0 1 2.5 2.5h1Zm-19 0a2.5 2.5 0 0 1 2.5-2.5v-1a3.5 3.5 0 0 0-3.5 3.5h1ZM6 22.5A3.5 3.5 0 0 0 9.5 26v-1A2.5 2.5 0 0 1 7 22.5H6ZM22.5 26a3.5 3.5 0 0 0 3.5-3.5h-1a2.5 2.5 0 0 1-2.5 2.5v1ZM10.654 12.67C10.654 9.514 13.072 7 16 7V6c-3.53 0-6.346 3.012-6.346 6.67h1ZM16 7c2.927 0 5.346 2.513 5.346 5.67h1C22.346 9.013 19.53 6 16 6v1Zm.5 13.1v-3.085h-1V20.1h1Z" fill="currentColor"/>
  </symbol>
</svg>
